X: 3362
T:Gan Ainm
R:jig
S:Fiddle player from Donegal.
M:6/8
L:1/8
K:Ador
~A3 ABc|~A3 ABc|BGG DGG|BGB dcB|!
ABA ABc|ABA A2a|bag edc|1 BdB GcB:|2 BdB ~G3||!
|:~g3 gag|fde fdc|dgg gag|fde ~f3|!
~g3 bag|fde fga|bag edc|1 BdB ~G3:|2 BdB GcB||!
